X:1
T:Pastoral Symphony
T:Pastoral Symphony
T:from Messiah
T:Handel
C:Handel
%%score 1 2 3
L:1/8
M:12/8
K:Ab
V:1 treble nm="Flute" snm="Fl."
V:2 treble transpose=-2 nm="B♭ Clarinet" snm="B♭ Cl."
V:3 treble transpose=-2 nm="B♭ Clarinet" snm="B♭ Cl."
V:1
!mp! A2 B c2 d e3 f3 | Te>dc Td3 c3 d/e/ f2 | Te>dc Td3 c3- c2 B | c>de!mp! d>ec B3 e2 B | %4
 c2 B c>BA B3 c/d/ e2 | c2 B/4c/4d/ Tc3 B2 E e3- | e3 d3 Td>cB c2 A | B2 A B2 c d2 A d3- | %8
 d3 Tc>Bc B2 E e3- | e>dc Td>cB c3 d/e/ f2 | Te>dc Tc2 B !fermata!A6!fine! | E2 F G2 A B3 c3 | %12
 d>ed Tc>Bc B3 c3 | Td>ed c>Bc B3 B3- | B>cB B2 B =e3 g3 | B>cB A2 G A3 A3- | A>BA A2 A =d3 f3 | %17
 A>BA G2 F G3 c3 | B>AG A>GF G3 c3 | B>AG A>GF e>=dc B2 A | G3 TF3 E6!D.C.!!D.C.! |] %21
V:2
[K:Bb]!mp! B3- B2 c d3 e3 | Td>cB Tc3 B3 c/d/ e2 | Td>cB Tc3 B3- B2 A | B>cd c>dB A2 G A>GA | %4
 B2 A B>AG A2 G F3 | B2 A/4B/4c/ TB3 A3 z z F | G2 F G2 A B2 F B3- | B3 _A3- A2 G c3- | %8
 c3 B3- B2 A d3- | d>cB Tc>BA B3 c/d/ e2 | Td>cB TB2 A !fermata!B6 | F3- F2 G A3 B3 | %12
 c>dc TB>AB A3 B3 | Tc>dc B>AB A3 A3- | A>BA A2 A c6 | ^F2 A G2 F G3 G3- | G>AG G2 G B3 B3 | %17
 =E2 G F2 E F3 B3 | A>GF G>F=E F3 B3 | A>GF G>F=E A2 B A2 G | F3 T=E3 F3 A3 |] %21
V:3
[K:Bb] B,12- | B,12- | B,6- B,3- B,2 F | B,6 F,6- | F,12- | F,6- F,3 z z D | E3 C3 B,3 z z G | %7
 A3 F3 E3 z z C | D2 C D2 E F6 | F,6 B,6- | B,2 E F2 F !fermata!B,2 C D2 =E | F12 | F,12- | F,12 | %14
 E6 D6- | D6 G2 F =E2 D | C12- | C6 F,6- | F,12- | F,6- F,2 G, A,2 B, | C3 C3 F2 _E D2 C |] %21

